X: 400
T: Kitty Nowlan
M:3/4
L:1/8
B:O'Neill's 400
N:"Tenderly."
N:"2nd Setting."
N:All ornaments (~) are turns.
N:"collected by F. O'Neill"
Z:Transcribed by Chris Falt, cfalt@trytel.com
K:Dm
(f>e)|(d2A2).G2|({G}F)>E (DEFG)|A2(fed^c)|({c}d4)(fe)|
(d2A2)G2|({G}F)>E (.D.E.F.G)|A2(fde^c)|({e}d4)||
d>e|(~f>g)a2gf|(~e>f)g2ag|f>e(~d2e^c)|A4(fe)|
(d2A2)G2|({G}F)>E (.D.E.F.G)|A2(fde^c)|({e}d4)||
